X: 44
T: Ahter-i Düşkün
C: Hacı Ârif Bey
O: Turkey
F: http://compmusic.upf.edu/node/140
N: nihavent--sarki--agiraksak--ahter-i_duskun--haci_arif_bey
N: makam= nihavent
N: form= sarki
N: usul= agiraksak = 9/4
M: 9/4
L: 1/16
K: C _B _e  
Q: 1/4=72
%%MIDI tuningsystem comma53
G2d4cB cde4dc Bcd4cB ABce dcBA G4  | 
w:  ARANAĞME  | 
^fga4gf gab4ag f3e feed d4 bagf g4  | 
w:   | 
f2g4fe fg_a4gf efg4fe dede gfed c4  | 
w:   | 
ABAB cBAG ABAB cBAG dcBA AGG^F G4 GABc d4  | 
w:   | 
G2d4cB cde4dc Bcd4cB ABce dcBA G4  | 
w:  ARANAĞME  | 
^fga4gf gab4ag f3e feed d4 bagf g4  | 
w:   | 
f2g4fe fg_a4gf efg4fe dede gfed c4  | 
w:   | 
ABAB cBAG ABAB cBAG dcBA AGG^F G8 z4  | 
w:   | 
z8 z2G4e2 d3c B4 c4 d8  | c2dc B2A4c4e2 eddc cBBA A2BA AGG^F G4  | 
w:  Ah ter_ i  *  *  düş  |  *  *  *  *  *  kün  ga rîb_ *  *  *  *  *  *  *  i   | 
z4 G2d6 _7/8e4 ^f2ed e2d^c d3c cBBA B4  | \
w:  â *  şık_ ı  *  *  *  *  *  â  | 
^c2d4cd _7/8e6d2 a2g^f feed d6d_e d=cBc  | 
w:  vâ *  *  *  *  *  *  *  *  *  *  re *  yim   SAZ  | 
d3e dcd2 z2d4f2 f3e defg g3f f3e e3d  | \
w:  *  *  *  *  *  Gün  gi bi  *  *  *  *  *  der  | 
d3c BAB4_1/4ef g2gf f_eed dccB c2{e}dc cBBA B4  | 
w:  *  *  *  *  *  yâ *  *  yı  *  aş *  *  *  *  *  *  *  kın  | 
B4 B2d6 d3c c3B B3A dcBA GABc d4  | \
w:  *  da  *  ge *  zer  *  *  *  bî  | 
d2d4cB ABc4BA A2{c}BA AGG^F G6f_7/8g f_1/4ede  | 
w:  *  çâ *  *  *  *  *  *  *  *  *  *  *  *  *  re *  yim   SAZ  | 
f3_7/8g f_1/4ef2 z2f4ga g2fg f2e2 e2f4d2 e2f2  | \
w:  *  *  *  *  *  Sa na  *  kul  *  *  *  *  ol  | 
_7/8gf_1/4ef e2d2 ^c2d4e2 f2g2 f2e2 f3e d4 =g4  | 
w:  *  *  *  *  *  *  *  dum  ka pın *  *  *  da   | 
gf_1/4ed c2d2 d3c d2e2 f2_7/8g2 fedc3de f2g2 f2e2  | 
w:  *  *  *  *  gay *  *  *  rı  *  kan *  *  *  *  *  de   | 
z2f4_7/8ed d2e4d2 a2g^f feed d6de dcBc  | 
w:  va *  *  *  *  *  *  *  *  *  *  ra *  yım   SAZ  | 
d3e dcd2 z2d4f2 f3e defg g3f f3e e3d  | \
w:  *  *  *  *  *  Gün  gi bi  *  *  *  *  *  der  | 
d3c BAB4_1/4ef g2gf f_eed dccB c2{e}dc cBBA B4  | 
w:  *  *  *  *  *  yâ *  *  yı  *  aş *  *  *  *  *  *  *  kın  | 
B4 B2d6 d3c c3B B3A dcBA GABc d4  | \
w:  *  da  *  ge *  zer  *  *  *  bî  | 
d2d4cB ABc4BA A2{c}BA AGG^F G6|
w:  *  çâ *  *  *  *  *  *  *  *  *  *  *  *  *  re *  yim    | 


